X: 1086
T: Blacksmith's jig (A41)
T: Gigue du Forgeron
N: page A41
N: heptatonic
R: Jig
O: Québec
M: 6/8
L: 1/8
K: D
A \
|: "D"dcd AFA | dfb a2f | "Em"gfg "A7"Ace |
 "D"dfd "(A7)"AFA | "D"dcd AFA | dfb "Bmin7"a2f | "Em"gfg "A"Ace |
[1 "D"d2d d2 A :|[2 d2 d "D7/F#"d2 g|:  "G"b3- "G/B"bag |"D"faa agf |
 "Em"gfg "A"Ace | "F#dim"ba^g "D/F#"a2a |"G"b3- bag | "D"faa "Bm"agf |
 "Em"gfg "A7"Ace |[1 "D7/F#"d2d d2 g :|[2 "D" d2d d2 A|
